resources/svg/contacts-book-line.svg

<svg fill="currentColor" viewBox="0 0 24 24" xmlns="http://www.w3.org/2000/svg"><path d="M3 2H19.0049C20.1068 2 21 2.89821 21 3.9908V20.0092C21 21.1087 20.1074 22 19.0049 22H3V2ZM7 4H5V20H7V4ZM9 20H19V4H9V20ZM11 16C11 14.3431 12.3431 13 14 13C15.6569 13 17 14.3431 17 16H11ZM14 12C12.8954 12 12 11.1046 12 10C12 8.89543 12.8954 8 14 8C15.1046 8 16 8.89543 16 10C16 11.1046 15.1046 12 14 12ZM22 6H24V10H22V6ZM22 12H24V16H22V12Z"/></svg>

<svg xmlns="http://www.w3.org/2000/svg" viewBox="0 0 24 24" fill="currentColor">
    <g>
        <path fill="none" d="M0 0h24v24H0z"/>
        <path d="M3 2h16.005C20.107 2 21 2.898 21 3.99v16.02c0 1.099-.893 1.99-1.995 1.99H3V2zm4 2H5v16h2V4zm2 16h10V4H9v16zm2-4a3 3 0 0 1 6 0h-6zm3-4a2 2 0 1 1 0-4 2 2 0 0 1 0 4zm8-6h2v4h-2V6zm0 6h2v4h-2v-4z"/>
    </g>
</svg>
